X: 11377
T: Earl's Chair, The
R: reel
M: 4/4
K: Dmajor
K: Dmaj
A|:"Bm"B2 dB BAFA|"Bm"B2 dB BAFB|"D"A~F3D~F3|"D"AFdB ADFA|
"Bm"~B3d BAFA|"Bm"B2 dB BAFB|"D"AFAB dcdf|1 "D"edef d2FA:|2 "D"edef d3f||
|:"A"~e3 f "D"d2 (3Bcd|"A"edef "D"dBAB|"A"~e3f "D"~d3e|"G"fedB ADFA|
"A"~e3 f "D"d~B3|"G"g~B3 defg|"G"afbf afeg|1 "A"fedB AFdf:|2 "A"fedB ADFA||

